X:1
T:The Potato
M:4/4
L:1/16
K:F
 f3- e| d3 d d3 e d3 c A2 cc| f3 g a2f2 g4 a3- c'| d'3 c' a3 g f3 g a3 f|\
 g3 a g3 e| c6f-e| d3 d d3 e d3 c A3 c| f3 g a3 f g6a-c'| d'3 c' a3 g f3 g a3 a|\
 g f3 d3 d| d4||

